OBSTACLEBEAMON
LINETRACKERON
RESETDISTANCE
IF READKEYPAD > 0 [BEEP]
IF READOBSTACLE > 0 [STOP]
IF READCLAP > 0 [LEDON]
IF READLINE = 1 [FORWARD 1]
MAKE "left READLEFTLIGHT
MAKE "right READRIGHTLIGHT
IF READDISTANCE > 100 [STOP]
OBSTACLEBEAMOFF
LINETRACKEROFF
